X: 93
T:Cottage in the Grove (#289), The
M:4/4
L:1/8
S:Rice-Walsh manuscript
R:Reel
K:G
AcBc A2 GE|DEGB ed d2|eaaf gedB|AcBc AGEG|
AcBc A2 GE|DEGB ed d2|eaaf gedB|AcBc A2||
AA|a2 aa gede|gedB GBdB|eaaf gedB|AcBc A2 AA|
agbg agbg|agbg fedf|eaaf gfec|dfaf gedB||

